!!!!SEGMENT: pl-kk--kk-i-2--006-004_anonim--missa-iii-sanctus.krn
!!!cenid: 16xx:1606
!!!COM: Anonim
!!!COM-rismid: pe30004985
!!!CDT:
!!!CNT:
!!!OPR: Missa III
!!!OTL: Sanctus
!!!OMV: 004
!!!PDT:
!!!AGN: Sacred; Mass
!!!SMS-siglum: PL-Kk
!!!SMS-shelfmark: Kk.I.2
!!!SMS-shelfwork: 006-004 M
!!!NIFC-rismid: 300258022
!!!URL-scan: http://repozytorium.nifc.pl/skany/pl-kk-nut--i-2
!!!ONB-nifc: Części mszy: Kyrie, Gloria, Credo, Sanctus, Agnus Dei; skany: C: 0017-0018; A: 0118-0119; T: 0221-0223; B: 0321;
!!!key:
**kern	**text	**kern	**text	**kern	**text	**kern	**text
*part4	*part4	*part3	*part3	*part2	*part2	*part1	*part1
*staff4	*staff4	*staff3	*staff3	*staff2	*staff2	*staff1	*staff1
*I"BASVS	*	*I"TENOR	*	*I"ALTVS	*	*I"DISCANTVS	*
*I'B	*	*I'T	*	*I'A	*	*I'S	*
*ICvox	*	*ICvox	*	*ICvox	*	*ICvox	*
*Ibass	*	*Itenor	*	*Ialto	*	*Isoprn	*
*clefC4	*	*clefC3	*	*clefC3	*	*clefG2	*
*F:lyd	*	*F:lyd	*	*F:lyd	*	*F:lyd	*
*k[b-]	*	*k[b-]	*	*k[b-]	*	*k[b-]	*
*M2/1	*	*M2/1	*	*M2/1	*	*M2/1	*
*met(c|)	*	*met(c|)	*	*met(c|)	*	*met(c|)	*
=1	=1	=1	=1	=1	=1	=1	=1
!LO:TX:t=P:problem: klucz tenorowy dla głosu B	!	!	!	!	!	!	!
0r	.	0r	.	1r	.	1f	San-
!	!	!	!	!	!	!LO:TX:t=P:problem:kreska pseudotaktowa	!
.	.	.	.	1c	San-	1cc	.
=2	=2	=2	=2	=2	=2	=2	=2
*	*	*	*	*	*	*lig	*
!	!	!	!	!	!	!LO:N:vis=0	!
0r	.	0r	.	1.f	.	1cc	.
!	!	!	!	!	!	!LO:N:vis=0	!
.	.	.	.	.	.	1dd	.
.	.	.	.	4e\	.	.	.
.	.	.	.	4d\	.	.	.
!	!	!	!	!LO:TX:t=P:problem:kreska pseudotaktowa	!	!	!
*	*	*	*	*	*	*Xlig	*
=3	=3	=3	=3	=3	=3	=3	=3
1r	.	2r	.	2e\	.	2.cc\	.
!	!	!LO:TX:t=P:problem:kreska pseudotaktowa	!	!	!	!	!
.	.	2F/	San-	1f	.	.	.
!	!	!	!	!	!	!LO:TX:t=P:problem:kreska pseudotaktowa	!
.	.	.	.	.	.	4b-/	.
1C	San-	1c	-ctus	.	.	2a/	.
!	!	!	!	!	!	!LO:TX:t=P:problem:kreska pseudotaktowa	!
.	.	.	.	2e\	.	2g/	.
=4	=4	=4	=4	=4	=4	=4	=4
*	*	*lig	*	*	*	*	*
!	!	!LO:N:vis=0	!	!	!	!	!
1.F	-ctus	1c	.	2f\	.	2a/	.
.	.	.	.	1g	.	1cc	.
!	!	!LO:TX:t=P:problem:kreska pseudotaktowa	!	!	!	!	!
!	!	!LO:N:vis=0	!	!	!	!	!
.	.	1d	.	.	.	.	.
2G/	.	.	.	4g\	.	2b-/	.
.	.	.	.	4f\	.	.	.
!LO:TX:t=P:problem:kreska pseudotaktowa	!	!	!	!LO:TX:t=P:problem:kreska pseudotaktowa	!	!	!
*	*ij	*Xlig	*	*	*	*	*
=5	=5	=5	=5	=5	=5	=5	=5
2A/	San-	2c,/	.	2e\	.	2cc\	.
*	*	*	*ij	*	*	*	*
2F/	.	1f	San-	2f\	.	2a/	.
*	*	*	*	*	*	*lig	*
!	!	!	!	!	!	!LO:N:vis=0	!
2.c\	.	.	.	1g	.	1g	-ctus
!	!	!LO:TX:t=P:problem:kreska pseudotaktowa	!	!	!	!	!
.	.	2e\	.	.	.	.	.
4B-/	.	.	.	.	.	.	.
=6	=6	=6	=6	=6	=6	=6	=6
!	!	!	!	!LO:TX:t=P:problem:kreska pseudotaktowa	!	!LO:TX:t=P:problem:kreska pseudotaktowa	!
!	!	!	!	!	!	!LO:N:vis=0	!
2A/	.	2.f\	.	1c	-ctus	1a	.
2G/	.	.	.	.	.	.	.
.	.	4e\	-ctus	.	.	.	.
!LO:TX:t=P:problem:kreska pseudotaktowa	!	!	!	!	!	!	!
*	*	*	*Xij	*	*	*Xlig	*
2F/	.	2d/	.	1r	.	1r	.
2E/	.	1c	.	.	.	.	.
=7	=7	=7	=7	=7	=7	=7	=7
1D	.	.	.	2r	.	1r	.
!	!	!LO:TX:t=P:problem:kreska pseudotaktowa	!	!	!	!	!
.	.	2B-/	.	1f	Do-	.	.
!LO:TX:t=P:problem:kreska pseudotaktowa	!	!	!	!	!	!	!
1C	-ctus	2.c/	.	.	.	2r	.
!	!	!	!	!LO:TX:t=P:problem:kreska pseudotaktowa	!	!	!
.	.	.	.	2e\	-mi-	1cc	Do-
!	!	!LO:TX:t=P:problem:kreska pseudotaktowa	!	!	!	!	!
.	.	4B-/	San-	.	.	.	.
*	*Xij	*	*	*	*	*	*
=8	=8	=8	=8	=8	=8	=8	=8
0r	.	2A/	-ctus	2f\	-nus	.	-mi-
!	!	!LO:TX:t=P:problem:kreska pseudotaktowa	!	!	!	!LO:TX:t=P:problem:kreska pseudotaktowa	!
.	.	2G/	.	2g\	.	2b-/	-nus
.	.	2A/	.	2.f\	de-	2cc\	De-
.	.	2B-/	.	.	.	2dd\	-us
!	!	!	!	!LO:SIC:v:t=custos e	!	!	!
!	!	!	!	!LO:TX:t=P:problem:kreska pseudotaktowa	!	!	!
.	.	.	.	4d/	-us	.	.
!	!	!	!	!LO:LB:g=original	!	!	!
=9	=9	=9	=9	=9	=9	=9	=9
!	!	!LO:TX:t=P:problem:kreska pseudotaktowa	!	!	!	!	!
2r	.	1c	.	2e\	Sab-	2.cc\	Sa-
1F	do-	.	.	2f\	.	.	.
!	!	!	!	!	!	!LO:SIC:v:t=custos g	!
!	!	!	!	!	!	!LO:LB:g=original	!
!	!	!	!	!	!	!LO:TX:t=P:problem:kreska pseudotaktowa	!
.	.	.	.	.	.	4b-/	.
.	.	2r	.	2c/	.	2a/	.
!LO:TX:t=P:problem:kreska pseudotaktowa	!	!	!	!LO:TX:t=P:problem:kreska pseudotaktowa	!	!LO:TX:t=P:problem:kreska pseudotaktowa	!
2E/	-mi-	1c\	do-	2e\	.	2g/	.
=10	=10	=10	=10	=10	=10	=10	=10
2F/	-nus	.	.	2.d\	.	2a/	.
!	!	!	!	!	!	!LO:TX:t=P:problem:kreska pseudotaktowa	!
2G/	.	2B-/	-mi-	.	.	2b-/	.
.	.	.	.	4e\	.	.	.
!	!	!LO:SIC:v:t=custos d	!	!	!	!	!
!	!	!LO:TX:t=P:problem:kreska pseudotaktowa	!	!	!	!	!
2F/	de-	1c	-nus	2f\	.	4a/	.
.	.	.	.	.	.	4g/	.
!	!	!	!	!LO:TX:t=P:problem:kreska pseudotaktowa	!	!	!
2A/	.	.	.	2e\	.	1cc	.
!	!	!LO:LB:g=original	!	!	!	!	!
=11	=11	=11	=11	=11	=11	=11	=11
!LO:SIC:v:t=custos c	!	!	!	!	!	!	!
!LO:TX:t=P:problem:kreska pseudotaktowa	!	!	!	!	!	!	!
1G	.	1d	De-	2.g\	.	.	.
!LO:LB:g=original	!	!	!	!	!	!LO:TX:t=P:problem:kreska pseudotaktowa	!
.	.	.	.	.	.	2b-/	.
.	.	.	.	4f\	.	.	.
2C/	-us	2.c/	-us	2e\	.	2cc\	.
1c	Sab-	.	.	4d/	.	2.g/	.
!	!	!LO:TX:t=P:problem:kreska pseudotaktowa	!	!LO:TX:t=P:problem:kreska pseudotaktowa	!	!	!
.	.	4B-/	.	4c/	.	.	.
=12	=12	=12	=12	=12	=12	=12	=12
.	.	2G/	.	1d	.	.	.
.	.	.	.	.	.	4a/	.
!LO:TX:t=P:problem:kreska pseudotaktowa	!	!	!	!	!	!LO:TX:t=P:problem:kreska pseudotaktowa	!
2B-\	.	2.g\	Sab-	.	.	2b-/	.
2A/	.	.	.	2c/	.	2cc\	.
.	.	4f\	-ba-	.	.	.	.
4G/	-ba-	1f	.	1c	.	2a/	-ba-
4F/	.	.	.	.	.	.	.
=13	=13	=13	=13	=13	=13	=13	=13
!LO:TX:t=P:problem:kreska pseudotaktowa	!	!	!	!	!	!LO:TX:t=P:problem:kreska pseudotaktowa	!
1G	.	.	.	.	.	1b-	-oth
!	!	!LO:TX:t=P:problem:kreska pseudotaktowa	!	!LO:TX:t=P:problem:kreska pseudotaktowa	!	!	!
.	.	2e\	.	2B-/	-ba-	.	.
2F/	.	2.f\	.	2c/	-oth	2a/	.
2D/	.	.	.	1f	do-	2.b-/	.
.	.	4e\	.	.	.	.	.
=14	=14	=14	=14	=14	=14	=14	=14
*lig	*	*	*	*	*	*	*
!LO:N:vis=0	!	!	!	!	!	!	!
1F	.	2d\	.	.	.	.	.
.	.	.	.	.	.	4a/	.
!	!	!LO:TX:t=P:problem:kreska pseudotaktowa	!	!LO:TX:t=P:problem:kreska pseudotaktowa	!	!	!
.	.	2c/	.	2f\	-mi-	1a	.
!LO:N:vis=0	!	!	!	!	!	!	!
1G	.	2.B-/	.	2d\	-nus	.	.
.	.	.	.	2e\	de-	2g/	.
.	.	4B-/	.	.	.	.	.
!	!	!	!	!LO:TX:t=P:problem:kreska pseudotaktowa	!	!LO:TX:t=P:problem:kreska pseudotaktowa	!
*Xlig	*	*	*	*	*	*	*
=15	=15	=15	=15	=15	=15	=15	=15
!	!	!LO:TX:t=P:problem:kreska pseudotaktowa	!	!	!	!	!
2D/	-oth	1A,	-oth	2.f\	-us	2.a/	.
*	*ij	*	*ij	*	*	*	*
1F	Sab-	.	.	.	.	.	.
!	!	!	!	!LO:TX:t=P:problem:kreska pseudotaktowa	!	!	!
.	.	.	.	4e\	.	4g/	.
.	.	2r	.	2c/	.	2f/	.
!LO:TX:t=P:problem:kreska pseudotaktowa	!	!	!	!LO:TX:t=P:problem:kreska pseudotaktowa	!	!LO:TX:t=P:problem:kreska pseudotaktowa	!
2E/	-ba-	1c	Sab-	2e\	.	2g/	.
=16	=16	=16	=16	=16	=16	=16	=16
2F/	.	.	.	2.d\	Sab-	2a/	Sa-
!	!	!LO:TX:t=P:problem:kreska pseudotaktowa	!	!	!	!	!
2G/	.	2B-/	-ba-	.	.	2.b-/	-ba-
.	.	.	.	4e\	-ba-	.	.
2F/	.	2c/	.	1.f	.	.	.
.	.	.	.	.	.	4a/	.
!	!	!LO:TX:t=P:problem:kreska pseudotaktowa	!	!	!	!LO:TX:t=P:problem:kreska pseudotaktowa:między nutą a kropką	!
2D/	.	2d/	.	.	.	2.a/	.
=17	=17	=17	=17	=17	=17	=17	=17
2F/	.	2.c/	.	.	.	.	.
!	!	!	!	!	!	!LO:SIC:v:t=custos g	!
.	.	.	.	.	.	4g/	.
!	!	!	!	!	!	!LO:LB:g=original	!
!	!	!	!	!LO:SIC:v:t=custos d	!	!	!
!	!	!	!	!LO:TX:t=P:problem:kreska pseudotaktowa	!	!	!
2C/	.	.	.	2e\	.	2.g/	.
!	!	!	!	!LO:LB:g=original	!	!	!
!	!	!LO:TX:t=P:problem:kreska pseudotaktowa	!	!	!	!	!
.	.	4B-/	.	.	.	.	.
1D	.	2A/	.	2d/	.	.	.
.	.	.	.	.	.	4f/	.
.	.	4G/	.	2B-/	.	1f	.
.	.	4F/	.	.	.	.	.
=18	=18	=18	=18	=18	=18	=18	=18
1C	.	2.G/	.	1c	.	.	.
.	.	.	.	.	.	2e/	-oth
.	.	4G/	.	.	.	.	.
!	!	!LO:TX:a:B:t=Pleniſunt Vide	!	!	!	!	!
!LO:TX:t=P:problem:kreska pseudotaktowa	!	!LO:TX:t=P:problem:kreska pseudotaktowa	!	!LO:TX:t=P:problem:kreska pseudotaktowa	!	!LO:TX:t=P:problem:kreska pseudotaktowa	!
!	!	!LO:N:vis=0	!	!	!	!	!
!LO:N:vis=00	!	!	!	!LO:N:vis=00	!	!LO:N:vis=0	!
1F;\	oth	1F;	-oth	1c;	-oth	1f;	.
*	*Xij	*	*Xij	*	*	*	*
!	!	!LO:LB:g=original	!	!	!	!	!
=19||	=19||	=19||	=19||	=19||	=19||	=19||	=19||
0r	.	0r	.	0r	.	1.cc	Ple-
!	!	!	!	!	!	!LO:TX:t=P:problem:kreska pseudotaktowa	!
.	.	.	.	.	.	2cc\	-ni-
=20	=20	=20	=20	=20	=20	=20	=20
!	!	!LO:TX:t=P:problem:kreska pseudotaktowa:między nutą a kropką	!	!	!	!	!
0r	.	1.c	Ple-	1.f	Ple-	2.a/	-sunt
!	!	!	!	!	!	!LO:TX:t=P:problem:kreska pseudotaktowa	!
.	.	.	.	.	.	4b-/	.
.	.	.	.	.	.	4cc\	.
.	.	.	.	.	.	4a/	cae-
.	.	4d\	.	2f\	-ni-	1dd	.
!	!	!LO:TX:t=P:problem:kreska pseudotaktowa	!	!	!	!	!
.	.	4e\	.	.	.	.	.
=21	=21	=21	=21	=21	=21	=21	=21
0r	.	2.f\	-ni-	2.d\	.	.	.
.	.	.	.	.	.	4cc\	.
!	!	!LO:TX:t=P:problem:kreska pseudotaktowa	!	!LO:TX:t=P:problem:kreska pseudotaktowa	!	!LO:TX:t=P:problem:kreska pseudotaktowa	!
.	.	4g\	.	4e\	-sunt	4b-/	.
.	.	2a,\	-sunt	2f\	.	2a/	.
.	.	1e	.	1g	.	2b-/	.
=22	=22	=22	=22	=22	=22	=22	=22
0r	.	.	.	.	.	4g/	.
.	.	.	.	.	.	4a/	.
.	.	4f\	cae-	4f\	.	4b-/	.
!	!	!LO:TX:t=P:problem:kreska pseudotaktowa	!	!LO:TX:t=P:problem:kreska pseudotaktowa	!	!LO:TX:t=P:problem:kreska pseudotaktowa	!
.	.	4g\	.	4e\	.	4cc\	.
.	.	2a\)	.	2d/	.	4dd\	.
.	.	.	.	.	.	4ee\	.
!	!	!LO:TX:t=P:problem:kreska pseudotaktowa:między nutą a kropką	!	!	!	!	!
.	.	2.f\	.	2.f\	.	2.dd\	.
=23	=23	=23	=23	=23	=23	=23	=23
0r	.	.	.	.	.	.	.
.	.	4g\)	.	4e\	.	4cc/	.
!	!	!LO:TX:t=P:problem:kreska pseudotaktowa	!	!	!	!	!
.	.	2a\	-li	4d\	.	1cc	.
!	!	!	!	!LO:TX:t=P:problem:kreska pseudotaktowa	!	!	!
.	.	.	.	4c\	.	.	.
.	.	1f	et	1d	.	.	.
!	!	!	!	!	!	!LO:SIC:v:t=custos cc	!
!	!	!	!	!	!	!LO:TX:t=P:problem:kreska pseudotaktowa	!
.	.	.	.	.	.	2b-/	.
!	!	!	!	!	!	!LO:LB:g=original	!
=24	=24	=24	=24	=24	=24	=24	=24
0r	.	2.e\	ter-	2.c/	.	0cc	-li
!	!	!LO:TX:t=P:problem:kreska pseudotaktowa	!	!LO:TX:t=P:problem:kreska pseudotaktowa	!	!	!
.	.	4f\	.	4d/	.	.	.
.	.	4g\	.	4e\	.	.	.
.	.	4e\	.	4c/	.	.	.
.	.	2.a\	.	2.f\	.	.	.
=25	=25	=25	=25	=25	=25	=25	=25
0r	.	.	.	.	.	2r	.
.	.	8g\L	.	8e/	.	.	.
.	.	8f\J	.	8d/	.	.	.
!	!	!	!	!LO:SIC:v:t=custos f	!	!	!
!	!	!	!	!LO:TX:t=P:problem:kreska pseudotaktowa	!	!LO:TX:t=P:problem:kreska pseudotaktowa	!
.	.	2g\	-ra	2e\	.	2g/	et-
!	!	!	!	!LO:LB:g=original	!	!	!
!	!	!LO:TX:t=P:problem:kreska pseudotaktowa	!	!LO:TX:t=P:problem:kreska pseudotaktowa	!	!	!
.	.	1a,	.	1f	.	2.cc/	-ter-
!	!	!	!	!	!	!LO:TX:t=P:problem:kreska pseudotaktowa	!
.	.	.	.	.	.	4cc/	-ra
=26	=26	=26	=26	=26	=26	=26	=26
0r	.	1r	.	1r	.	2cc/	glo-
!	!	!	!	!	!	!LO:TX:t=P:problem:kreska pseudotaktowa	!
.	.	.	.	.	.	2dd/	-ri-
!	!	!LO:TX:t=P:problem:kreska pseudotaktowa	!	!	!	!	!
.	.	1g	et-	1c	et	2ee\	-a
.	.	.	.	.	.	1cc	tu-
=27	=27	=27	=27	=27	=27	=27	=27
0r	.	2.a\	-ter-	2.f\	ter-	.	.
.	.	.	.	.	.	1ff	.
!	!	!LO:TX:t=P:problem:kreska pseudotaktowa	!	!LO:TX:t=P:problem:kreska pseudotaktowa	!	!	!
.	.	4a\	-ra	4f\	-ra	.	.
.	.	2a\	.	2f\	glo-	.	.
!	!	!LO:TX:t=P:problem:kreska pseudotaktowa	!	!LO:TX:t=P:problem:kreska pseudotaktowa	!	!	!
.	.	2g\	glo-	2g\	-ri-	4ee\	.
!	!	!	!	!	!	!LO:TX:t=P:problem:kreska pseudotaktowa	!
.	.	.	.	.	.	4dd\	.
=28	=28	=28	=28	=28	=28	=28	=28
0r	.	2f\	-ri-	2a\	-a	2cc\	.
!	!	!LO:TX:t=P:problem:kreska pseudotaktowa	!	!	!	!	!
.	.	1a	-a	1f	tu-	2dd\	.
.	.	.	.	.	.	2.a/	.
.	.	4g\	.	4e/	.	.	.
!	!	!LO:TX:t=P:problem:kreska pseudotaktowa	!	!LO:TX:t=P:problem:kreska pseudotaktowa	!	!LO:TX:t=P:problem:kreska pseudotaktowa	!
.	.	4f\	.	4d/	.	4b-/	.
=29	=29	=29	=29	=29	=29	=29	=29
0r	.	2e,\	.	2c/	.	2cc/	.
!	!	!	!	!	!	!LO:TX:t=P:problem:kreska pseudotaktowa	!
.	.	2a\	tu-	1f	.	2dd/	.
!	!	!LO:TX:t=P:problem:kreska pseudotaktowa	!	!	!	!	!
.	.	1g	-a	.	.	2ee\	.
!	!	!	!	!LO:TX:t=P:problem:kreska pseudotaktowa	!	!	!
.	.	.	.	2e\	.	2.gg\	.
=30	=30	=30	=30	=30	=30	=30	=30
0r	.	2a,\	.	1f	.	.	.
.	.	.	.	.	.	4ff\	.
!	!	!LO:TX:t=P:problem:kreska pseudotaktowa	!	!	!	!	!
.	.	2c\	tu-	.	.	1ff	.
!	!	!LO:TX:t=P:problem:kreska pseudotaktowa	!	!	!	!	!
.	.	1B-X	.	1g	.	.	.
!	!	!	!	!	!	!LO:TX:t=P:problem:kreska pseudotaktowa	!
.	.	.	.	.	.	2ee\	-a
=31	=31	=31	=31	=31	=31	=31	=31
!	!	!LO:TX:t=P:problem:kreska pseudotaktowa:między nutą a kropką	!	!LO:TX:t=P:problem:kreska pseudotaktowa	!	!	!
0r	.	0A	-a	0f	-a	2ff\	.
.	.	.	.	.	.	4f/	glo-
!	!	!	!	!	!	!LO:TX:t=P:problem:kreska pseudotaktowa	!
.	.	.	.	.	.	4g/	-ri-
.	.	.	.	.	.	4a/	-a
.	.	.	.	.	.	4b-/	.
.	.	.	.	.	.	2.cc/	tu-
=32	=32	=32	=32	=32	=32	=32	=32
0r	.	2r	.	2r	.	.	.
.	.	.	.	.	.	4a/	.
!	!	!	!	!	!	!LO:SIC:v:t=custos cc	!
!	!	!	!	!	!	!LO:TX:t=P:problem:kreska pseudotaktowa	!
!	!	!	!	!	!	!LO:LB:g=original	!
.	.	1A	glo-	2f\	glo-	2dd\	.
.	.	.	.	(2f\	-ri-	2cc\	.
!	!	!LO:TX:t=P:problem:kreska pseudotaktowa	!	!LO:TX:t=P:problem:kreska pseudotaktowa	!	!	!
.	.	2A/	-ri-	2d/)	-a	1dd	.
=33	=33	=33	=33	=33	=33	=33	=33
0r	.	2.B-/	-a	2g,\	.	.	.
!	!	!	!	!LO:TX:t=P:problem:kreska pseudotaktowa	!	!	!
!	!	!	!	!LO:TX:t=P:problem:kreska pseudotaktowa	!	!	!
.	.	.	.	2g\	tu-	4cc\	.
!	!	!LO:SIC:v:t=custos c1	!	!	!	!	!
!	!	!LO:TX:t=P:problem:kreska pseudotaktowa	!	!	!	!LO:TX:t=P:problem:kreska pseudotaktowa	!
.	.	4B-/	tu-	.	.	4b-/	.
.	.	2c,\	-a	2f,\	-a	2a/	.
!	!	!	!	!LO:TX:t=P:problem:kreska pseudotaktowa	!	!	!
!	!	!	!	!LO:TX:t=P:problem:kreska pseudotaktowa	!	!	!
.	.	1f	.	2d/	.	2.dd\	.
=34	=34	=34	=34	=34	=34	=34	=34
0r	.	.	.	2f\	glo-	.	.
.	.	.	.	.	.	4cc\	.
!	!	!LO:TX:t=P:problem:kreska pseudotaktowa	!	!	!	!	!
.	.	2g\	Tu-	2e\	-ri-	1cc	.
!	!	!LO:TX:t=P:problem:kreska pseudotaktowa	!	!LO:TX:t=P:problem:kreska pseudotaktowa	!	!	!
.	.	1f	.	1d	-a	.	.
!	!	!	!	!	!	!LO:TX:t=P:problem:kreska pseudotaktowa	!
.	.	.	.	.	.	2b-/	.
=35	=35	=35	=35	=35	=35	=35	=35
!	!	!LO:TX:t=P:problem:kreska pseudotaktowa	!	!	!	!	!
0r	.	1e,	-a	4c/	glo-	2cc\	-a
.	.	.	.	4d/	.	.	.
.	.	.	.	4e\	.	4g/	.
!	!	!	!	!LO:TX:t=P:problem:kreska pseudotaktowa	!	!LO:TX:t=P:problem:kreska pseudotaktowa	!
.	.	.	.	4f\	.	4a/	.
.	.	2e\	glo-	2g\	.	4b-/	.
.	.	.	.	.	.	4cc\	.
.	.	2.f\	.	2.d\	.	4dd\	.
!	!	!	!	!	!	!LO:TX:t=P:problem:kreska pseudotaktowa	!
.	.	.	.	.	.	4ee\	.
=36	=36	=36	=36	=36	=36	=36	=36
0r	.	.	.	.	.	2ff\	.
.	.	4g\	.	4e\	.	.	.
!	!	!LO:TX:t=P:problem:kreska pseudotaktowa	!	!LO:TX:t=P:problem:kreska pseudotaktowa	!	!LO:TX:t=P:problem:kreska pseudotaktowa	!
.	.	2a\	.	2f\	.	2cc\	glo-
.	.	2g\	.	2c/	-ri-	2ee\	-ri-
!	!	!LO:TX:t=P:problem:kreska pseudotaktowa	!	!	!	!	!
.	.	2f\	-ri-	2d/	-a	2.dd\	-a
=37	=37	=37	=37	=37	=37	=37	=37
0r	.	2g\	-a	2e\	tu-	.	.
.	.	.	.	.	.	4cc\	tu-
!	!	!LO:TX:t=P:problem:kreska pseudotaktowa	!	!	!	!	!
.	.	2f\	.	2f\	.	1cc	.
.	.	(2f\	.	1d	.	.	.
!	!	!LO:TX:t=P:problem:kreska pseudotaktowa	!	!	!	!LO:TX:t=P:problem:kreska pseudotaktowa	!
.	.	2d\)	.	.	.	2bn/	-a
=38	=38	=38	=38	=38	=38	=38	=38
*	*	*	*	*^	*	*^	*
!	!	!	!	!LO:N:vis=1	!	!	!	!	!
!	!	!	!	!	!	!	!LO:N:vis=2	!	!
0r	.	2e\	.	0c	1cyy	-a	0cc\	2cc\yy	Glo-
!	!	!LO:TX:t=P:problem:kreska pseudotaktowa	!	!	!	!	!	!	!
.	.	2f\	.	.	.	.	.	2ff\	-ri-
.	.	0B-X	Tu-	.	0d	.	.	1ff	-a-
=39	=39	=39	=39	=39	=39	=39	=39	=39	=39
0r	.	.	.	0ryy	.	.	0ryy	1ff	-tu-
!	!	!	!	!	!	!	!	!LO:TX:t=P:problem:kreska pseudotaktowa	!
.	.	0c	-a	.	0.c;<	.	.	2ee/	.
.	.	.	.	.	.	.	.	1ff	.
=40	=40	=40	=40	=40	=40	=40	=40	=40	=40
!	!	!	!	!LO:TX:t=P:problem:kreska pseudotaktowa	!	!	!	!	!
0r	.	.	.	0ryy	.	.	0ryy	.	.
.	.	.	.	.	.	.	.	2ee/	.
!	!	!LO:TX:t=P:problem:kreska pseudotaktowa	!	!	!	!	!	!	!
!	!	!	!	!	!	!	!	!LO:N:vis=0	!
.	.	1f	.	.	.	.	.	1ff;<	-a
!	!	!	!	!LO:LB:g=original	!	!	!	!	!
*	*	*	*	*v	*v	*	*	*	*
*	*	*	*	*	*	*v	*v	*
=41||	=41||	=41||	=41||	=41||	=41||	=41||	=41||
!	!	!	!	!	!	!LO:TX:t=P:problem:kreska pseudotaktowa	!
0.F	-O-	1r	.	0.f	O-	0cc	OSan-
.	.	0c	O	.	.	.	.
=42	=42	=42	=42	=42	=42	=42	=42
!	!	!LO:TX:t=P:problem:kreska pseudotaktowa	!	!	!	!	!
.	.	.	.	.	.	1.ff	.
*lig	*	*	*	*	*	*	*
!LO:TX:t=P:problem: nad główkami nut dopisana litera "z"	!	!	!	!	!	!	!
0F	-ſan-	1.f	San-	0a	-San-	.	.
!	!	!	!	!	!	!LO:TX:t=P:problem:kreska pseudotaktowa	!
.	.	.	.	.	.	2ee\	.
=43	=43	=43	=43	=43	=43	=43	=43
.	.	.	.	.	.	2dd\	.
!	!	!LO:TX:t=P:problem:kreska pseudotaktowa	!	!	!	!LO:TX:t=P:problem:kreska pseudotaktowa	!
!	!	!	!	!	!	!LO:SIC:v:t=custos cc	!
.	.	2e\	-na	.	.	2cc\	.
0G	.	2d\	in	0g	-na	2b-/	.
.	.	2c/	ex-	.	.	1cc\	.
!	!	!LO:TX:t=P:problem:kreska pseudotaktowa	!	!	!	!	!
*Xlig	*	*	*	*	*	*	*
=44	=44	=44	=44	=44	=44	=44	=44
!	!	!	!	!LO:TX:t=P:problem:kreska pseudotaktowa	!	!	!
.	.	1d	-cel-	.	in	.	.
!	!	!	!	!	!	!LO:TX:t=P:problem:kreska pseudotaktowa	!
.	.	.	.	.	.	2b-/	.
!	!	!LO:TX:t=P:problem:kreska pseudotaktowa	!	!	!	!	!
1A	-na	1c	-sis	1e	ex-	4cc\	.
.	.	.	.	.	.	4b-/	.
.	.	.	.	.	.	4a/	.
.	.	.	.	.	.	4g/	.
=45	=45	=45	=45	=45	=45	=45	=45
*lig	*	*	*ij	*	*	*	*
!LO:N:vis=0	!	!	!	!	!	!	!
1F	in	2r	.	2.f\	.	1a	-na
.	.	1c	O	.	.	.	.
.	.	.	.	4e\	.	.	.
!LO:TX:t=P:problem:kreska pseudotaktowa	!	!	!	!LO:TX:t=P:problem:kreska pseudotaktowa	!	!	!
!LO:N:vis=0	!	!	!	!	!	!	!
1G	.	.	.	1d	.	2g,/	.
.	.	2B-/	.	.	.	2b-/	in
!	!	!LO:TX:t=P:problem:kreska pseudotaktowa	!	!	!	!LO:TX:t=P:problem:kreska pseudotaktowa	!
*Xlig	*	*	*	*	*	*	*
=46	=46	=46	=46	=46	=46	=46	=46
2C/	ex-	2.c/	San-	2.c/	.	2a/	ex-
1c	-cel-	.	.	.	.	2g/	-cel-
.	.	4B-/	-na	4d/	.	.	.
.	.	2A/	in	4e\	.	1.cc	.
.	.	.	.	4f\	.	.	.
!LO:TX:t=P:problem:kreska pseudotaktowa	!	!LO:TX:t=P:problem:kreska pseudotaktowa	!	!LO:TX:t=P:problem:kreska pseudotaktowa	!	!	!
!LO:TX:t=P:problem: pod główkami nut dopisana litera "y"	!	!	!	!	!	!	!
2B-/	.	2G/	ex-	2g\	.	.	.
=47	=47	=47	=47	=47	=47	=47	=47
2A/	.	2A/	-cel-	2c/	.	.	.
!	!	!	!	!LO:SIC:v:t=custos f	!	!	!
!	!	!LO:TX:t=P:problem:kreska pseudotaktowa	!	!LO:TX:t=P:problem:kreska pseudotaktowa	!	!LO:TX:t=P:problem:kreska pseudotaktowa	!
2G/	.	2B-/	.	2d/	.	2b-/	.
!	!	!	!	!LO:LB:g=original	!	!	!
1c	.	2F/	.	2f\	.	2a/	.
.	.	1c\	.	2e\	.	2g/	.
=48	=48	=48	=48	=48	=48	=48	=48
2F/	.	.	.	2f\	.	2a/	.
!	!	!LO:TX:t=P:problem:kreska pseudotaktowa	!	!LO:TX:t=P:problem:kreska pseudotaktowa	!	!LO:TX:t=P:problem:kreska pseudotaktowa	!
2G/	.	2B-/	.	2d/	.	2b-/	.
1.F	.	2A/	.	2.f\	.	2cc\	.
!	!	!LO:TX:t=P:problem:kreska pseudotaktowa	!	!	!	!	!
.	.	2F/	.	.	.	2.cc\	.
!	!	!	!	!LO:TX:t=P:problem:kreska pseudotaktowa	!	!	!
.	.	.	.	4e\	.	.	.
=49	=49	=49	=49	=49	=49	=49	=49
.	.	2.c/	.	2f\	.	.	.
.	.	.	.	.	.	4b-/	.
!LO:TX:t=P:problem:kreska pseudotaktowa	!	!	!	!	!	!LO:TX:t=P:problem:kreska pseudotaktowa	!
2E/	.	.	.	2.g\	-cel-	2cc\	.
.	.	8B-/	.	.	.	.	.
!	!	!LO:TX:t=P:problem:kreska pseudotaktowa	!	!	!	!	!
.	.	8c/	.	.	.	.	.
*	*	*	*	*	*	*lig	*
!	!	!	!	!	!	!LO:N:vis=0	!
2F/	.	2d\	.	.	.	1a	.
.	.	.	.	4f\	.	.	.
2A/	.	2.c/	.	1f	.	.	.
=50	=50	=50	=50	=50	=50	=50	=50
!	!	!	!	!	!	!LO:N:vis=0	!
1G	.	.	.	.	.	1b-X	.
.	.	8B-/	.	.	.	.	.
.	.	8A/	.	.	.	.	.
.	.	2Bn/	.	2e\	.	.	.
!	!	!LO:SIC:v:t=custos c1	!	!	!	!	!
!	!	!LO:TX:t=P:problem:kreska pseudotaktowa	!	!LO:TX:t=P:problem:kreska pseudotaktowa	!	!	!
*	*	*	*	*	*	*Xlig	*ij
!LO:TX:t=P:problem:kreska pseudotaktowa:między nutą a kropką	!	!LO:TX:t=P:problem:kreska pseudotaktowa	!	!LO:TX:t=P:problem:kreska pseudotaktowa	!	!	!
0.F	-ſis	1c	-sis	0.f	-sis	2a,/	-sis
.	.	.	.	.	.	2cc\	in
*	*	*	*Xij	*	*	*	*
!	!	!LO:LB:g=original	!	!	!	!	!
=51	=51	=51	=51	=51	=51	=51	=51
.	.	2r	.	.	.	2dd\	ex-
!	!	!LO:TX:t=P:problem:kreska pseudotaktowa	!	!	!	!LO:TX:t=P:problem:kreska pseudotaktowa	!
.	.	2c/	O-	.	.	2cc\	-cel-
!	!	!	!	!	!	!LO:SIC:v:t=custos c2	!
!	!	!	!	!	!	!LO:LB:g=original	!
.	.	2d/	-San-	.	.	2a/	.
!	!	!LO:TX:t=P:problem:kreska pseudotaktowa	!	!	!	!	!
.	.	2c/	-na	.	.	2.cc\	.
=52	=52	=52	=52	=52	=52	=52	=52
2r	.	2A/	in	2r	.	.	.
.	.	.	.	.	.	4b-/	.
!LO:TX:t=P:problem:kreska pseudotaktowa	!	!	!	!	!	!	!
*	*ij	*	*	*	*ij	*	*
2F/	O-	2c/	ex-	2f\	in	1a	.
!	!	!LO:TX:t=P:problem:kreska pseudotaktowa	!	!	!	!	!
1G	-san-	1B-	-cel-	2d\	ex-	.	.
!	!	!	!	!LO:TX:t=P:problem:kreska pseudotaktowa	!	!LO:TX:t=P:problem:kreska pseudotaktowa	!
.	.	.	.	2e\	.	2g/	.
=53	=53	=53	=53	=53	=53	=53	=53
1F	-na	2A/	.	2f\	.	2a,/	sis
!	!	!	!	!LO:TX:t=P:problem:kreska pseudotaktowa	!	!	!
.	.	1f	.	2c/	.	2a/	in
2D/	in	.	.	2d/	.	2f/	ex-
!	!	!LO:TX:t=P:problem:kreska pseudotaktowa	!	!	!	!LO:TX:t=P:problem:kreska pseudotaktowa	!
2E/	ex-	2e\	.	2c/	.	2g/	-cel-
=54	=54	=54	=54	=54	=54	=54	=54
2F/	-ce-	2c/	.	2A/	.	2a/	.
!LO:SIC:v:t=custos d	!	!	!	!	!	!	!
!LO:TX:t=P:problem:kreska pseudotaktowa	!	!LO:TX:t=P:problem:kreska pseudotaktowa	!	!LO:TX:t=P:problem:kreska pseudotaktowa	!	!	!
2C/	.	2e\	.	2c/	.	2.a/	.
!LO:LB:g=original	!	!	!	!	!	!	!
2D,/	-sis	2f\	.	1B-	-cel-	.	.
.	.	.	.	.	.	4f/	.
!	!	!LO:TX:t=P:problem:kreska pseudotaktowa	!	!	!	!LO:TX:t=P:problem:kreska pseudotaktowa	!
2E/	O-	2e\	.	.	.	2g/	.
=55	=55	=55	=55	=55	=55	=55	=55
2F/	-san-	2c/	.	2A/	-sis	2.a/	.
!LO:TX:t=P:problem:kreska pseudotaktowa	!	!	!	!	!	!	!
2F/	-na	2d\	.	2f\	in	.	.
.	.	.	.	.	.	8g/	.
.	.	.	.	.	.	8a/	.
2G/	in	2B-/	.	2d\	ex-	2b-\	.
!	!	!LO:TX:t=P:problem:kreska pseudotaktowa	!	!	!	!	!
2F/	ex-	2c/	.	1f	.	1a	.
=56	=56	=56	=56	=56	=56	=56	=56
2D/	-cel-	2d\	.	.	.	.	.
!	!	!LO:TX:t=P:problem:kreska pseudotaktowa	!	!LO:TX:t=P:problem:kreska pseudotaktowa	!	!LO:TX:t=P:problem:kreska pseudotaktowa	!
2E/	.	2B-/	.	2e\	.	2g/	.
2F/	.	2A/	.	2c/	.	2a/	.
!	!	!LO:TX:t=P:problem:kreska pseudotaktowa	!	!	!	!	!
2C/	.	2c/	.	2e\	.	2.g/	.
=57	=57	=57	=57	=57	=57	=57	=57
1D	.	4B-/	.	2d/	.	.	.
.	.	4A/	.	.	.	4f/	.
.	.	4G/	.	2B-/	.	1f	.
.	.	4F/	.	.	.	.	.
1C	.	1G	-ſis	1c	cel-	.	.
.	.	.	.	.	.	2e/	.
=58	=58	=58	=58	=58	=58	=58	=58
!	!	!LO:SIC:v:t=custos c1	!	!LO:SIC:v:t=custos f	!	!LO:SIC:v:t=custos c2	!
!LO:TX:t=P:problem:kreska pseudotaktowa	!	!LO:TX:t=P:problem:kreska pseudotaktowa	!	!LO:TX:t=P:problem:kreska pseudotaktowa	!	!LO:TX:t=P:problem:kreska pseudotaktowa	!
!LO:N:vis=00	!	!	!	!	!	!	!
0F\	-sis	0F;	.	0c;	-sis	0f;	-sis
*	*Xij	*	*	*	*Xij	*	*Xij
!	!	!	!	!	!	!LO:LB:g=original	!
!	!	!LO:LB:g=original	!	!	!LO:LB:g=original	!	!
=59||	=59||	=59||	=59||	=59||	=59||	=59||	=59||
!LO:TX:a:B:t=Benedictus no vemit.	!	!	!	!	!	!	!
0ryy	.	1.c	Be-	0r	.	1r	.
.	.	.	.	.	.	1.cc	Be-
!	!	!LO:TX:t=P:problem:kreska pseudotaktowa	!	!	!	!	!
.	.	2B-/	-ne-	.	.	.	.
=60	=60	=60	=60	=60	=60	=60	=60
!LO:TX:a:B:t=Osanna ut Supra	!	!	!	!	!	!	!
0ryy	.	2A/	-dic-	0r	.	.	.
.	.	2G/	-tus	.	.	2b-/	-ne-
.	.	2c/	qui	.	.	2a/	-dic-
!	!	!LO:TX:t=P:problem:kreska pseudotaktowa	!	!	!	!LO:TX:t=P:problem:kreska pseudotaktowa	!
.	.	2c/	ve-	.	.	2g/	-tus
=61	=61	=61	=61	=61	=61	=61	=61
0ryy	.	2.F/	.	1.f	Be-	4a/	qui
.	.	.	.	.	.	4g/	-ve-
.	.	.	.	.	.	4a/	.
!	!	!	!	!	!	!LO:TX:t=P:problem:kreska pseudotaktowa	!
.	.	4G/	.	.	.	4b-/	.
.	.	4A/	.	.	.	2cc\	.
.	.	4B-/	.	.	.	.	.
!	!	!LO:TX:t=P:problem:kreska pseudotaktowa	!	!LO:TX:t=P:problem:kreska pseudotaktowa	!	!	!
.	.	2c/	.	2e\	-ne-	4g/	.
!	!	!	!	!	!	!LO:TX:t=P:problem:kreska pseudotaktowa	!
.	.	.	.	.	.	4a/	.
=62	=62	=62	=62	=62	=62	=62	=62
0ryy	.	2B-/	.	2d\	-di-	4b-/	.
.	.	.	.	.	.	4g/	.
!	!	!	!	!LO:TX:t=P:problem:kreska pseudotaktowa	!	!	!
.	.	2A/	.	2c\	-ctus	1cc	.
.	.	4G/	.	2d\	.	.	.
.	.	4A/	.	.	.	.	.
!	!	!	!	!LO:TX:t=P:problem:kreska pseudotaktowa	!	!LO:TX:t=P:problem:kreska pseudotaktowa	!
.	.	4B-/	.	2d\	qui	2b-/	.
!	!	!LO:TX:t=P:problem:kreska pseudotaktowa	!	!	!	!	!
.	.	4G/	.	.	.	.	.
=63	=63	=63	=63	=63	=63	=63	=63
0ryy	.	2A/	.	2.c/	ve-	1cc	-nit
.	.	2F/	.	.	.	.	.
.	.	.	.	4d/	.	.	.
.	.	2c/	.	2e\	.	2r	.
!	!	!LO:TX:t=P:problem:kreska pseudotaktowa	!	!	!	!LO:TX:t=P:problem:kreska pseudotaktowa	!
*	*	*	*	*	*	*	*ij
.	.	2d\	.	1f\	.	2a/	Be-
=64	=64	=64	=64	=64	=64	=64	=64
0ryy	.	2B-/	.	.	.	2b-/	-ne-
!	!	!	!	!LO:TX:t=P:problem:kreska pseudotaktowa	!	!	!
.	.	2c/	.	2e\	.	2g/	-dic-
.	.	2F/	.	2f\	-nit	2.cc\	-tus
.	.	1A	.	4r	.	.	.
!	!	!	!	!LO:TX:t=P:problem:kreska pseudotaktowa	!	!LO:TX:t=P:problem:kreska pseudotaktowa	!
*	*	*	*	*	*ij	*	*
.	.	.	.	4e\	Be-	4b-/	.
=65	=65	=65	=65	=65	=65	=65	=65
0r	.	.	.	2f\	-ne-	2a/	.
.	.	2B-/	.	2d/	-dic-	2f/	qui
.	.	2G/	.	2.e\	-tus	1g	ve-
.	.	1c	.	.	.	.	.
.	.	.	.	4d/	qui	.	.
=66	=66	=66	=66	=66	=66	=66	=66
0ryy	.	.	.	2e\	ve-	2a/	.
!	!	!LO:SIC:v:t=custos c1	!	!	!	!	!
!	!	!LO:TX:t=P:problem:kreska pseudotaktowa	!	!	!	!LO:TX:t=P:problem:kreska pseudotaktowa	!
.	.	2B-/	.	2f\	.	2b-/	.
!	!	!	!	!LO:TX:t=P:problem:kreska pseudotaktowa	!	!LO:SIC:v:t=custos c2	!
.	.	1c	.	1e	.	2g/	.
!	!	!	!	!	!	!LO:LB:g=original	!
.	.	.	.	.	.	2.cc\	.
!	!	!LO:LB:g=original	!	!	!	!	!
=67	=67	=67	=67	=67	=67	=67	=67
0ryy	.	2F/	.	1.f	.	.	.
.	.	.	.	.	.	4a/	.
!	!	!	!	!	!	!LO:TX:t=P:problem:kreska pseudotaktowa:między nutą a kropką	!
.	.	1B-	.	.	.	(2.dd\	.
.	.	.	.	.	.	4cc/)	.
.	.	2c/	.	2e\	.	1cc	.
=68	=68	=68	=68	=68	=68	=68	=68
!	!	!LO:TX:t=P:problem:kreska pseudotaktowa	!	!	!	!	!
0ryy	.	1G	-nit	1d	.	.	.
!	!	!	!	!	!	!LO:TX:t=P:problem:kreska pseudotaktowa	!
.	.	.	.	.	.	2b-/	.
!	!	!	!	!LO:TX:t=P:problem:kreska pseudotaktowa	!	!	!
.	.	2r	.	1c	nit	1cc	-nit
.	.	2c/	in	.	.	.	.
*	*	*	*	*	*Xij	*	*Xij
=69	=69	=69	=69	=69	=69	=69	=69
0r	.	2B-/	no-	1f	-in	2r	.
.	.	2A/	-mi-	.	.	1cc	in
.	.	2c/	-ne	2e\	no-	.	.
!	!	!	!	!LO:TX:t=P:problem:kreska pseudotaktowa	!	!LO:TX:t=P:problem:kreska pseudotaktowa	!
.	.	2G/	do-	2d\	-mi-	2b-/	no-
=70	=70	=70	=70	=70	=70	=70	=70
0ryy	.	1d	-mi-	2.f\	-ne	4a/	-mi-
.	.	.	.	.	.	4g/	-ne
.	.	.	.	.	.	4a/	do-
!	!	!	!	!LO:SIC:v:t=custos e	!	!	!
!	!	!	!	!LO:TX:t=P:problem:kreska pseudotaktowa	!	!	!
.	.	.	.	4d/	.	4b-/	-mi-
!	!	!LO:TX:t=P:problem:kreska pseudotaktowa	!	!	!	!	!
!	!	!	!	!LO:LB:g=original	!	!	!
.	.	1c	-ni	(4e\	do-	2cc\	.
.	.	.	.	4d\	.	.	.
.	.	.	.	4e\	.	4g/	.
!	!	!	!	!LO:TX:t=P:problem:kreska pseudotaktowa	!	!LO:TX:t=P:problem:kreska pseudotaktowa	!
.	.	.	.	4f\)	.	4a/	.
=71	=71	=71	=71	=71	=71	=71	=71
0ryy	.	1r	.	2.g\	.	4b-/	.
.	.	.	.	.	.	4cc/	.
.	.	.	.	.	.	2.dd\	.
!	!	!	!	!LO:TX:t=P:problem:kreska pseudotaktowa	!	!	!
.	.	.	.	4f\	.	.	.
.	.	2r	.	2d/	.	.	.
.	.	.	.	.	.	4cc/	.
*	*	*	*ij	*	*	*	*
.	.	1G/	in	2.g\	.	4b-/	.
!	!	!	!	!	!	!LO:TX:t=P:problem:kreska pseudotaktowa	!
.	.	.	.	.	.	4a/	.
=72	=72	=72	=72	=72	=72	=72	=72
0ryy	.	.	.	.	.	4b-/	.
.	.	.	.	4f\	.	4a/	.
!	!	!LO:TX:t=P:problem:kreska pseudotaktowa	!	!	!	!	!
.	.	2A/	no-	1f	.	4g/	.
!	!	!	!	!	!	!LO:TX:t=P:problem:kreska pseudotaktowa	!
.	.	.	.	.	.	4f/	.
.	.	2B-/	-mi-	.	.	2g,/	-ni
!	!	!	!	!LO:TX:t=P:problem:kreska pseudotaktowa	!	!	!
*	*	*	*	*	*	*	*ij
.	.	2c/	-ne	2e\	-mi-	2g/	in
=73	=73	=73	=73	=73	=73	=73	=73
!	!	!	!	!LO:TX:t=P:problem:kreska pseudotaktowa	!	!	!
0ryy	.	2A/	do-	1f	-ni	4f/	no-
.	.	.	.	.	.	4g/	.
.	.	4F/	-mi-	.	.	4a/	.
!	!	!LO:TX:t=P:problem:kreska pseudotaktowa	!	!	!	!LO:TX:t=P:problem:kreska pseudotaktowa	!
.	.	4G/	.	.	.	4b-/	.
.	.	4A/	.	2r	.	4cc\	.
!	!	!	!	!	!	!LO:SIC:v:t=custos d2	!
.	.	4F/	.	.	.	4a/	.
!	!	!	!	!	!	!LO:LB:g=original	!
*	*	*	*	*	*ij	*	*
.	.	1B-	.	1d	in	1dd	.
=74	=74	=74	=74	=74	=74	=74	=74
0ryy	.	.	.	.	.	.	.
!	!	!	!	!LO:TX:t=P:problem:kreska pseudotaktowa	!	!	!
.	.	4A/	.	2e\	no-	4cc\	-mi-
!	!	!LO:TX:t=P:problem:kreska pseudotaktowa	!	!	!	!LO:TX:t=P:problem:kreska pseudotaktowa	!
.	.	4G/	.	.	.	4b-/	-ne
.	.	2F/	.	2f\	-mi-	2a/	do-
!	!	!	!	!LO:TX:t=P:problem:kreska pseudotaktowa	!	!LO:TX:t=P:problem:kreska pseudotaktowa	!
.	.	2B-/	.	2d/	-ne	2b-/	.
=75	=75	=75	=75	=75	=75	=75	=75
0ryy	.	2A/	.	2e\	do-	2cc\	.
!	!	!LO:SIC:v:t=custos a	!	!	!	!	!
!	!	!LO:TX:t=P:problem:kreska pseudotaktowa	!	!	!	!	!
.	.	2F/	.	2.f\	.	2.dd\	.
!	!	!LO:LB:g=original	!	!	!	!	!
*	*	*lig	*	*	*	*	*
!	!	!LO:N:vis=0	!	!	!	!	!
.	.	1A	ni	.	.	.	.
.	.	.	.	4e\	.	4cc\	.
.	.	.	.	4d/	.	1cc	.
!	!	!	!	!LO:TX:t=P:problem:kreska pseudotaktowa	!	!	!
.	.	.	.	4c/	.	.	.
*	*	*	*Xij	*	*	*	*
=76	=76	=76	=76	=76	=76	=76	=76
!	!	!LO:TX:t=P:problem:kreska pseudotaktowa	!	!	!	!	!
!	!	!LO:N:vis=0	!	!	!	!	!
0ryy	.	1G	.	1d	mi-	.	.
.	.	.	.	.	.	2b-/	.
!	!	!	!	!	!	!LO:TX:t=P:problem:kreska pseudotaktowa	!
*	*	*Xlig	*	*	*	*	*
.	.	1r	.	2c/	-ni	2cc\	.
!	!	!	!	!	!	!LO:TX:t=P:problem:kreska pseudotaktowa	!
.	.	.	.	1f	in	2a/	.
*	*	*	*	*	*Xij	*	*
=77	=77	=77	=77	=77	=77	=77	=77
0ryy	.	1c	-in-	.	.	2.g/	.
!	!	!	!	!LO:TX:t=P:problem:kreska pseudotaktowa	!	!	!
.	.	.	.	2e\	no-	.	.
!	!	!	!	!	!	!LO:TX:t=P:problem:kreska pseudotaktowa	!
.	.	.	.	.	.	4a/	.
.	.	2B-/	-no-	2d\	-mi-	2b-/	.
!	!	!LO:TX:t=P:problem:kreska pseudotaktowa	!	!	!	!LO:TX:t=P:problem:kreska pseudotaktowa	!
.	.	2A/	-mi-	4c\	-ne	2cc\	.
!	!	!	!	!LO:TX:t=P:problem:kreska pseudotaktowa	!	!	!
.	.	.	.	4d\	.	.	.
=78	=78	=78	=78	=78	=78	=78	=78
0ryy	.	2c/	-ne	4e\	.	4g/	mi-
.	.	.	.	4f\	.	4a/	.
.	.	4G/	do-	4g\	do-	4b-/	.
!	!	!	!	!LO:TX:t=P:problem:kreska pseudotaktowa	!	!LO:TX:t=P:problem:kreska pseudotaktowa	!
.	.	4A/	-mi-	4f\	.	4cc\	.
.	.	4B-/	.	4d\	.	2dd\	-ni
*	*	*	*	*	*	*	*Xij
.	.	4c/	.	4e\	.	.	.
!	!	!LO:TX:t=P:problem:kreska pseudotaktowa	!	!	!	!LO:TX:t=P:problem:kreska pseudotaktowa	!
.	.	2d\	.	1f	.	2a/	no-
=79	=79	=79	=79	=79	=79	=79	=79
0ryy	.	2B-/	.	.	.	2b-,/	-mi-
!	!	!	!	!LO:SIC:v:t=custos f	!	!	!
!	!	!	!	!LO:TX:t=P:problem:kreska pseudotaktowa	!	!	!
.	.	2c/	.	2e\	-mi-	2g/	-ne
!	!	!	!	!LO:LB:g=original	!	!	!
.	.	2F/	.	2f\	.	2a/	.
.	.	1B-	.	1d	.	2f/	do-
=80	=80	=80	=80	=80	=80	=80	=80
0r	.	.	.	.	.	1b-	-mi-
!	!	!	!	!LO:TX:t=P:problem:kreska pseudotaktowa	!	!	!
.	.	4A/	.	2e\	.	.	.
!	!	!LO:TX:t=P:problem:kreska pseudotaktowa	!	!	!	!	!
.	.	4G/	.	.	.	.	.
.	.	2F/	.	2f\	.	2a/	.
.	.	2A/	.	2c/	.	1cc	.
=81	=81	=81	=81	=81	=81	=81	=81
0ryy	.	4G/	.	2d/	-ni	.	.
.	.	4A/	.	.	.	.	.
!	!	!	!	!	!	!LO:SIC:v:t=custos c2	!
!	!	!	!	!LO:TX:t=P:problem:kreska pseudotaktowa	!	!LO:TX:t=P:problem:kreska pseudotaktowa	!
!	!	!	!	!	!	!LO:LB:g=original	!
.	.	4B-/	.	2d/	no-	2b-/	.
!	!	!LO:TX:t=P:problem:kreska pseudotaktowa	!	!	!	!	!
.	.	4G/	.	.	.	.	.
.	.	2A/	.	2c/	-mi-	2cc\	.
!	!	!	!	!	!	!LO:TX:t=P:problem:kreska pseudotaktowa	!
.	.	2F/	.	2.f\	-ne	2a/	.
=82	=82	=82	=82	=82	=82	=82	=82
0ryy	.	1c	.	.	.	2g/	.
.	.	.	.	4d\	do-	.	.
!	!	!	!	!LO:TX:t=P:problem:kreska pseudotaktowa	!	!	!
.	.	.	.	2e\	-mi-	2.cc\	.
.	.	0F	.	2c/	.	.	.
.	.	.	.	.	.	4b-/	.
.	.	.	.	2.f\	.	4a/	.
!	!	!	!	!	!	!LO:TX:t=P:problem:kreska pseudotaktowa	!
.	.	.	.	.	.	4g/	.
=83	=83	=83	=83	=83	=83	=83	=83
0ryy	.	.	.	.	.	2a/	.
.	.	.	.	4e/	.	.	.
.	.	.	.	4d/	.	2a/	.
!	!	!	!	!LO:TX:t=P:problem:kreska pseudotaktowa	!	!	!
.	.	.	.	4c/	.	.	.
.	.	1B-	-ni	2d/	.	2.f/	.
.	.	.	.	2d/	-ni	.	.
.	.	.	.	.	.	4g/	-ni
=84	=84	=84	=84	=84	=84	=84	=84
!	!	!LO:TX:a:B:t=Osanna ut Supra	!	!	!	!LO:TX:a:B:t=Osanna ut Supra	!
!	!	!LO:TX:t=P:problem:kreska pseudotaktowa	!	!LO:TX:a:B:t=Osanna ut Supra	!	!LO:TX:t=P:problem:kreska pseudotaktowa	!
!	!	!	!	!	!	!LO:N:vis=00	!
!	!	!	!	!LO:N:vis=00	!	!	!
0ryy	.	0F;	.	0c\	.	0a\;	.
==	==	==	==	==	==	==	==
*-	*-	*-	*-	*-	*-	*-	*-
!!!system-decoration: [(s1,s2,s3,s4)]
!!!AIN: 1 alto 1 bass 1 soprn 1 tenor
!!!ENC: Berenika Jozajtis
!!!END: 2022-01-14
!!!ENC: Jan Barakat
!!!END: 2022-01-20
!!!RDF**kern: < = above
!!!RDF**kern: > = below
